svg/Pictogram/pictograms-nps-gas_station.svg

<?xml version="1.0" encoding="UTF-8" standalone="no"?>
<!-- Generator: Adobe Illustrator 13.0.2, SVG Export Plug-In . SVG Version: 6.00 Build 14948)  -->
<svg
   xmlns:dc="http://purl.org/dc/elements/1.1/"
   xmlns:cc="http://creativecommons.org/ns#"
   xmlns:rdf="http://www.w3.org/1999/02/22-rdf-syntax-ns#"
   xmlns:svg="http://www.w3.org/2000/svg"
   xmlns="http://www.w3.org/2000/svg"
   xmlns:sodipodi="http://sodipodi.sourceforge.net/DTD/sodipodi-0.dtd"
   xmlns:inkscape="http://www.inkscape.org/namespaces/inkscape"
   version="1.1"
   id="Layer_1"
   x="0px"
   y="0px"
   width="123.547px"
   height="123.539px"
   viewBox="-0.258 -0.548 123.547 123.539"
   style="enable-background:new -0.258 -0.548 123.547 123.539;"
   xml:space="preserve"
   sodipodi:version="0.32"
   inkscape:version="0.46"
   sodipodi:docname="pictograms-nps-gas_station-2.svg"
   inkscape:output_extension="org.inkscape.output.svg.inkscape"><metadata
   id="metadata17898"><rdf:RDF><cc:Work
       rdf:about=""><dc:format>image/svg+xml</dc:format><dc:type
         rdf:resource="http://purl.org/dc/dcmitype/StillImage" /></cc:Work></rdf:RDF></metadata><defs
   id="defs17896"><inkscape:perspective
     sodipodi:type="inkscape:persp3d"
     inkscape:vp_x="0 : 61.769501 : 1"
     inkscape:vp_y="0 : 1000 : 0"
     inkscape:vp_z="123.547 : 61.769501 : 1"
     inkscape:persp3d-origin="61.773499 : 41.179667 : 1"
     id="perspective17900" /></defs><sodipodi:namedview
   inkscape:window-height="700"
   inkscape:window-width="727"
   inkscape:pageshadow="2"
   inkscape:pageopacity="0.0"
   guidetolerance="10.0"
   gridtolerance="10.0"
   objecttolerance="10.0"
   borderopacity="1.0"
   bordercolor="#666666"
   pagecolor="#ffffff"
   id="base"
   showgrid="false"
   inkscape:zoom="0.93897473"
   inkscape:cx="168.61768"
   inkscape:cy="47.747459"
   inkscape:window-x="0"
   inkscape:window-y="37"
   inkscape:current-layer="Layer_1" />

<path
   d="M 14.569314,1.4998489 C 7.7703259,1.4998489 2.2508519,7.0318673 2.2508519,13.818312 L 2.2508519,108.16369 C 2.2508519,114.95013 7.7703259,120.48215 14.569314,120.48215 L 108.91469,120.48215 C 115.71368,120.48215 121.23315,114.95013 121.23315,108.16369 L 121.23315,13.818312 C 121.23315,7.0318673 115.71368,1.4998489 108.91469,1.4998489 L 14.569314,1.4998489 z"
   style="fill:#ffffff;fill-opacity:1;fill-rule:nonzero;stroke:none"
   id="path10131" /><path
   d="M 108.91469,-1.0090029 L 14.569314,-1.0090029 C 6.3779132,-1.0090029 -0.258,5.6269102 -0.258,13.818312 L -0.258,108.16369 C -0.258,116.34254 6.3779132,122.991 14.569314,122.991 L 108.91469,122.991 C 117.09355,122.991 123.742,116.34254 123.742,108.16369 L 123.742,13.818312 C 123.742,5.6269102 117.09355,-1.0090029 108.91469,-1.0090029 M 90.399362,107.16014 C 85.206038,107.16014 80.652472,102.8951 80.652472,98.027924 L 80.652472,61.749926 C 80.652472,60.094084 79.310237,58.751848 77.654394,58.751848 L 70.441445,58.751848 L 70.403813,106.90926 L 32.193999,106.28205 L 32.193999,23.82863 C 32.193999,19.525949 35.706391,16.026101 40.021617,16.026101 L 62.576195,16.026101 C 66.89142,16.026101 70.403813,19.525949 70.403813,23.82863 L 70.403813,24.76945 C 70.403813,29.812242 70.378724,53.608702 69.839321,53.63379 L 77.566585,53.63379 C 81.994708,53.63379 85.582366,57.233993 85.582366,61.649572 L 85.532189,98.027924 C 85.532189,100.42388 88.141395,102.28043 90.399362,102.28043 C 92.820404,102.28043 95.906292,100.27335 95.75576,96.898941 L 91.917217,76.138192 L 91.051663,69.113406 L 91.666332,48.603542 L 89.947768,48.578454 C 86.134314,48.578454 83.035882,45.492566 83.035882,41.679111 L 83.211501,30.941225 C 83.211501,30.941225 76.851562,24.644007 76.851562,23.753365 C 76.851562,23.753365 79.310237,21.307234 80.188335,21.307234 L 93.008568,34.064746 C 95.015649,36.084372 95.981557,38.480325 95.981557,41.453315 L 95.981557,69.113406 C 95.981557,69.113406 96.771845,75.097018 96.771845,75.147195 C 96.771845,75.147195 100.6982,96.811131 100.78601,98.027924 C 100.78601,103.25888 95.291623,107.16014 90.399362,107.16014"
   style="fill:#000000;fill-opacity:1;fill-rule:nonzero;stroke:none"
   id="path10133" /><path
   d="M 96.771845,75.147195 C 96.771845,75.097018 95.981557,69.113406 95.981557,69.113406 L 95.981557,41.453315 C 95.981557,38.480325 95.015649,36.084372 93.008568,34.064746 L 80.188335,21.307234 C 79.310237,21.307234 76.851562,23.753365 76.851562,23.753365 C 76.851562,24.644007 83.211501,30.941225 83.211501,30.941225 L 83.035882,41.679111 C 83.035882,45.492566 86.134314,48.578454 89.947768,48.578454 L 91.666332,48.603542 L 91.051663,69.113406 L 91.917217,76.138192 L 95.75576,96.898941 C 95.906292,100.27335 92.820404,102.28043 90.399362,102.28043 C 88.141395,102.28043 85.532189,100.42388 85.532189,98.027924 L 85.582366,61.649572 C 85.582366,57.233993 81.994708,53.63379 77.566585,53.63379 L 69.839321,53.63379 C 70.378724,53.608702 70.403813,29.812242 70.403813,24.76945 L 70.403813,23.82863 C 70.403813,19.525949 66.89142,16.026101 62.576195,16.026101 L 40.021617,16.026101 C 35.706391,16.026101 32.193999,19.525949 32.193999,23.82863 L 32.193999,106.28205 L 70.403813,106.90926 L 70.441445,58.751848 L 77.654394,58.751848 C 79.310237,58.751848 80.652472,60.094084 80.652472,61.749926 L 80.652472,98.027924 C 80.652472,102.8951 85.206038,107.16014 90.399362,107.16014 C 95.291623,107.16014 100.78601,103.25888 100.78601,98.027924 C 100.6982,96.811131 96.771845,75.147195 96.771845,75.147195"
   style="fill:#ffffff;fill-opacity:1;fill-rule:nonzero;stroke:none"
   id="path10135" /><path
   d="M 89.483631,37.46424 C 89.032038,37.363886 87.137854,36.924837 87.137854,36.924837 L 87.137854,41.842187 C 87.137854,43.184422 88.179028,44.664645 91.026575,45.279314 C 91.026575,45.279314 91.051663,41.603846 91.026575,40.374508 C 91.001486,39.132627 90.42445,37.715125 89.483631,37.46424"
   style="fill:#000000;fill-opacity:1;fill-rule:nonzero;stroke:none"
   id="path10137" /><path
   d="M 62.576195,21.708651 L 40.021617,21.708651 C 38.804823,21.708651 37.864004,22.636926 37.864004,23.82863 L 37.864004,42.858272 C 37.864004,44.049976 38.804823,44.990796 40.021617,44.990796 L 62.576195,44.990796 C 63.780444,44.990796 64.733807,44.049976 64.733807,42.858272 L 64.733807,23.82863 C 64.733807,22.636926 63.780444,21.708651 62.576195,21.708651"
   style="fill:#000000;fill-opacity:1;fill-rule:nonzero;stroke:none"
   id="path10139" /></svg>

<svg xmlns="http://www.w3.org/2000/svg" width="123.55" height="123.54" viewBox="-0.258 -0.548 123.547 123.539" enable-background="new -0.258 -0.548 123.547 123.539"><path d="m14.569 1.5c-6.799 0-12.318 5.532-12.318 12.318v94.35c0 6.786 5.519 12.318 12.318 12.318h94.35c6.799 0 12.318-5.532 12.318-12.318v-94.35c0-6.786-5.519-12.318-12.318-12.318h-94.35" fill="#fff"/><path d="m108.91-1.01h-94.35c-8.191 0-14.827 6.636-14.827 14.827v94.35c0 8.179 6.636 14.827 14.827 14.827h94.35c8.179 0 14.827-6.648 14.827-14.827v-94.35c0-8.191-6.648-14.827-14.827-14.827m-18.515 108.17c-5.193 0-9.747-4.265-9.747-9.132v-36.28c0-1.656-1.342-2.998-2.998-2.998h-7.213l-.038 48.16-38.21-.627v-82.45c0-4.303 3.512-7.803 7.828-7.803h22.555c4.315 0 7.828 3.5 7.828 7.803v.941c0 5.04-.025 28.839-.564 28.864h7.727c4.428 0 8.02 3.6 8.02 8.02l-.05 36.38c0 2.396 2.609 4.253 4.867 4.253 2.421 0 5.507-2.01 5.356-5.381l-3.839-20.761-.866-7.02.615-20.51-1.719-.025c-3.813 0-6.912-3.086-6.912-6.899l.176-10.738c0 0-6.36-6.297-6.36-7.188 0 0 2.459-2.446 3.337-2.446l12.82 12.758c2.01 2.02 2.973 4.416 2.973 7.389v27.66c0 0 .79 5.984.79 6.03 0 0 3.926 21.664 4.01 22.881 0 5.231-5.494 9.132-10.387 9.132"/><path d="m96.77 75.15c0-.05-.79-6.03-.79-6.03v-27.66c0-2.973-.966-5.369-2.973-7.389l-12.82-12.758c-.878 0-3.337 2.446-3.337 2.446 0 .891 6.36 7.188 6.36 7.188l-.176 10.738c0 3.813 3.098 6.899 6.912 6.899l1.719.025-.615 20.51.866 7.02 3.839 20.761c.151 3.374-2.935 5.381-5.356 5.381-2.258 0-4.867-1.857-4.867-4.253l.05-36.38c0-4.416-3.588-8.02-8.02-8.02h-7.727c.539-.025.564-23.822.564-28.864v-.941c0-4.303-3.512-7.803-7.828-7.803h-22.555c-4.315 0-7.828 3.5-7.828 7.803v82.45l38.21.627.038-48.16h7.213c1.656 0 2.998 1.342 2.998 2.998v36.28c0 4.867 4.554 9.132 9.747 9.132 4.892 0 10.387-3.901 10.387-9.132-.088-1.217-4.01-22.881-4.01-22.881" fill="#fff"/><path d="m89.48 37.464c-.452-.1-2.346-.539-2.346-.539v4.917c0 1.342 1.041 2.822 3.889 3.437 0 0 .025-3.675 0-4.905-.025-1.242-.602-2.659-1.543-2.91"/><path d="m62.58 21.709h-22.555c-1.217 0-2.158.928-2.158 2.12v19.03c0 1.192.941 2.133 2.158 2.133h22.555c1.204 0 2.158-.941 2.158-2.133v-19.03c0-1.192-.953-2.12-2.158-2.12"/></svg>
